build/img/advantage_4.svg

<svg viewBox="0 0 70 74" fill="none" xmlns="http://www.w3.org/2000/svg">
<path d="M4.29883 26.1777L6.79492 0.523438H31.2358V8.91309H14.8379L13.9365 19.7295C15.8317 18.4583 17.7847 17.8228 19.7954 17.8228C23.9556 17.8228 27.1566 19.3019 29.3984 22.2603C31.6634 25.2186 32.7959 29.4019 32.7959 34.8101C32.7959 39.8716 31.4554 43.9508 28.7744 47.0479C26.0934 50.1449 22.5111 51.6934 18.0273 51.6934C15.3695 51.6934 12.908 51.0693 10.6431 49.8213C8.37809 48.5501 6.58691 46.7936 5.26953 44.5518C3.97526 42.3099 3.31657 39.7676 3.29346 36.9248H13.0005C13.1623 39.028 13.6823 40.6574 14.5605 41.813C15.4388 42.9686 16.5713 43.5464 17.958 43.5464C19.5758 43.5464 20.8239 42.7721 21.7021 41.2236C22.5804 39.652 23.0195 37.3177 23.0195 34.2207C23.0195 31.3086 22.488 29.113 21.4248 27.6338C20.3848 26.1546 18.9172 25.415 17.022 25.415C15.173 25.415 13.7401 26.0506 12.7231 27.3218L12.0991 28.1885L4.29883 26.1777ZM57.4102 22.7109H67.2212V31.8286H57.4102V45.9385H48.1191V31.8286H38.1348V22.7109H48.1191V9.19043H57.4102V22.7109Z" fill="url(#paint0_linear)"/>
<path d="M6.11816 65.6035V73H4.9082V66.6494H2.95996L2.84375 69.1582C2.77995 70.5482 2.5931 71.5348 2.2832 72.1182C1.97331 72.6969 1.47656 72.9909 0.792969 73H0.389648V71.8857L0.697266 71.8584C1.03451 71.8128 1.27148 71.5872 1.4082 71.1816C1.54948 70.7715 1.6429 69.9671 1.68848 68.7686L1.80469 65.6035H6.11816ZM10.6846 73.1367C9.764 73.1367 9.05762 72.8633 8.56543 72.3164C8.07324 71.765 7.82259 70.9583 7.81348 69.8965V69.001C7.81348 67.8981 8.05273 67.0345 8.53125 66.4102C9.01432 65.7812 9.68652 65.4668 10.5479 65.4668C11.4137 65.4668 12.0609 65.7425 12.4893 66.2939C12.9176 66.8454 13.1364 67.7044 13.1455 68.8711V69.6641H9.0166V69.835C9.0166 70.6279 9.16471 71.2044 9.46094 71.5645C9.76172 71.9245 10.1924 72.1045 10.7529 72.1045C11.1084 72.1045 11.4206 72.0384 11.6895 71.9062C11.9629 71.7695 12.2181 71.5553 12.4551 71.2637L13.084 72.0293C12.5599 72.7676 11.7601 73.1367 10.6846 73.1367ZM10.5479 66.5059C10.0465 66.5059 9.67513 66.679 9.43359 67.0254C9.19206 67.3672 9.05534 67.9004 9.02344 68.625H11.9355V68.4609C11.9036 67.7591 11.776 67.2578 11.5527 66.957C11.334 66.6562 10.999 66.5059 10.5479 66.5059ZM19.1953 66.6289H17.1787V73H15.9756V66.6289H13.9863V65.6035H19.1953V66.6289Z" fill="#2E35AC"/>
<defs>
<linearGradient id="paint0_linear" x1="0" y1="2" x2="31.5181" y2="60.6935" gradientUnits="userSpaceOnUse">
<stop stop-color="#D10A42"/>
<stop offset="1" stop-color="#0041CA"/>
</linearGradient>
</defs>
</svg>

<svg viewBox="0 0 70 74" fill="none" xmlns="http://www.w3.org/2000/svg"><path d="M4.299 26.178L6.795.523h24.44v8.39H14.839l-.901 10.817c1.895-1.272 3.848-1.907 5.858-1.907 4.16 0 7.362 1.479 9.603 4.437 2.265 2.959 3.398 7.142 3.398 12.55 0 5.062-1.34 9.14-4.022 12.238-2.68 3.097-6.263 4.645-10.747 4.645-2.658 0-5.119-.624-7.384-1.872a14.173 14.173 0 01-5.373-5.27c-1.295-2.241-1.953-4.783-1.977-7.626h9.708c.161 2.103.681 3.732 1.56 4.888.878 1.156 2.01 1.733 3.397 1.733 1.618 0 2.866-.774 3.744-2.322.878-1.572 1.317-3.906 1.317-7.003 0-2.912-.531-5.108-1.594-6.587-1.04-1.48-2.508-2.219-4.403-2.219-1.849 0-3.282.636-4.299 1.907l-.624.867-7.8-2.011zM57.41 22.71h9.811v9.118h-9.81v14.11h-9.292v-14.11h-9.984V22.71h9.984V9.19h9.291v13.52z" fill="url(#paint0_linear)"/><path d="M6.118 65.603V73h-1.21v-6.35H2.96l-.116 2.508c-.064 1.39-.25 2.377-.56 2.96-.31.579-.807.873-1.491.882H.39v-1.114l.307-.028c.338-.045.574-.27.711-.676.141-.41.235-1.215.28-2.413l.117-3.166h4.313zm4.567 7.534c-.921 0-1.627-.274-2.12-.82-.492-.552-.742-1.359-.752-2.42V69c0-1.103.24-1.967.718-2.59.483-.63 1.156-.944 2.017-.944.866 0 1.513.276 1.941.827.429.551.647 1.41.656 2.577v.793H9.018v.171c0 .793.148 1.37.444 1.73.3.36.731.54 1.292.54.355 0 .668-.067.937-.199.273-.137.528-.35.765-.642l.629.765c-.524.739-1.324 1.108-2.4 1.108zm-.137-6.631c-.502 0-.873.173-1.114.52-.242.341-.379.874-.41 1.599h2.912v-.164c-.032-.702-.16-1.203-.383-1.504-.219-.3-.554-.451-1.005-.451zm8.647.123H17.18V73h-1.203v-6.371h-1.99v-1.026h5.21v1.026z" fill="#2E35AC"/><defs><linearGradient id="paint0_linear" x1="0" y1="2" x2="31.518" y2="60.694" gradientUnits="userSpaceOnUse"><stop stop-color="#D10A42"/><stop offset="1" stop-color="#0041CA"/></linearGradient></defs></svg>
